X:14
T:Blackhaired Lass (reel), The  
B:CRE1.114 (Cailin na Gruaige Duibhe)
F:file ID: cre.1/014black_L
S:Sonny Brogan
M:C
L:1/8
Q:180
R:reel
K:D
"A modal"
ed|cAAB cdec|d2ed BGGB|cAAB cdec|dfec A2AB|
cAAB cdec|d2ed BGGB|cAAB cdec|dfec A2AB|
"9"cAEA cdec|d2ed BGGB|cAEA cdec|dfed cAAB|
cAEA cdec|d2Bd cAAB|cAEA Bceg|faec A3||
|:B|"17"cdef g2eg|fdd2 fded|cdef g2eg|fgec A3B|
cdef g2eg|fdec defg|afge faec|dfec A3:|

%%%

